assets/icons/qvision/streetview.svg

<svg xmlns="http://www.w3.org/2000/svg" height="24" viewBox="0 0 24 24" width="24"><path d="M0 0h24v24H0z" fill="none"/><path d="M12.56 14.33c-.34.27-.56.7-.56 1.17V21h7c1.1 0 2-.9 2-2v-5.98c-.94-.33-1.95-.52-3-.52-2.03 0-3.93.7-5.44 1.83z"/><circle cx="18" cy="6" r="5"/><path d="M11.5 6c0-1.08.27-2.1.74-3H5c-1.1 0-2 .9-2 2v14c0 .55.23 1.05.59 1.41l9.82-9.82C12.23 9.42 11.5 7.8 11.5 6z"/></svg>

<svg width="24" height="24" viewBox="0 0 24 24" fill="none" xmlns="http://www.w3.org/2000/svg">
<g clip-path="url(#clip0_147_5631)">
<path d="M12.56 14.33C12.22 14.6 12 15.03 12 15.5V21H19C20.1 21 21 20.1 21 19V13.02C20.06 12.69 19.05 12.5 18 12.5C15.97 12.5 14.07 13.2 12.56 14.33Z" fill="#323232"/>
<path d="M18 11C20.7614 11 23 8.76142 23 6C23 3.23858 20.7614 1 18 1C15.2386 1 13 3.23858 13 6C13 8.76142 15.2386 11 18 11Z" fill="#323232"/>
<path d="M11.5 6C11.5 4.92 11.77 3.9 12.24 3H5C3.9 3 3 3.9 3 5V19C3 19.55 3.23 20.05 3.59 20.41L13.41 10.59C12.23 9.42 11.5 7.8 11.5 6Z" fill="#323232"/>
</g>
<defs>
<clipPath id="clip0_147_5631">
<rect width="24" height="24" fill="white"/>
</clipPath>
</defs>
</svg>
